X:1
T:O Summer Fair
L:1/4
M:3/4
I:linebreak $
K:C
V:1 treble 
V:1
|: E |"Am" A2 B | c2 A | c2"G" d |"C" e2 g |"D" ^f3/2 e/ d |"Em" e2 ^f |"C" e2 d |"G" B3 | %9
"Bm" A2 B |"F" A2 G |"C" c3/2 G/ A |"G" G2 B |"Em" d2 e |"Bm" d2 B |$"D" A3 |"Am" A3 | A2 :| %18
